X:90
T:Rondeau
R:Rondeau
O:France
M:3/8
L:1/8
K:G
GBd|GBd|d2c|B2A|GBd|GBd|dcB|A3:|
|:DGA|B2c|A2B|G2B|BAB|dcB|1AGA|B2G:|ABA|G3||
